X:164
T:Victoria Hornpipe
R:Hornpipe
S:MacDonald - Skye Collection
N:pg.171
M:C
L:1/8
K:A Mix
e2|a2 e2 dcBA|a2e2 dcBA|(dc)BA =G2 AB|=G2 d2 d2 e^g|a2e2 dcBA|dcBA
^GBed|c2A2A2:|
|:(cB)|(AB)cd e2 e=g|f2 df e2 ce|(dc)BA =G2 AB|=g2 d2 d2 (cB)|(AB)cd e2 e=g|
f2 df e2 ce|dcBA ^GBed|c2A2A2:|
